epam-assets/icon-sources/18/action-move_to.svg

<svg width="18" height="18" viewBox="0 0 18 18" fill="none" xmlns="http://www.w3.org/2000/svg">
<g id="18/action-move_to">
<g id="icon">
<path d="M12.2 16.2L13.25 17.25L16.25 14.25L13.25 11.25L12.1813 12.3L13.3812 13.5H10.25V15H13.3812L12.2 16.2Z" fill="#6C6F80"/>
<path d="M2.441 16.0597C2.7345 16.3532 3.0875 16.5 3.5 16.5H8.75V15H3.5V3H8.75V6.75H12.5V9.75H14V6L9.5 1.5H3.5C3.0875 1.5 2.7345 1.64675 2.441 1.94025C2.147 2.23425 2 2.5875 2 3V15C2 15.4125 2.147 15.7657 2.441 16.0597Z" fill="#6C6F80"/>
</g>
</g>
</svg>

<svg xmlns="http://www.w3.org/2000/svg" width="18" height="18" fill="none" viewBox="0 0 18 18">
  <path fill="#6C6F80" d="m12.2 16.2 1.05 1.05 3-3-3-3-1.069 1.05 1.2 1.2H10.25V15h3.131L12.2 16.2Z"/>
  <path fill="#6C6F80" d="M2.441 16.06c.294.293.647.44 1.059.44h5.25V15H3.5V3h5.25v3.75h3.75v3H14V6L9.5 1.5h-6c-.413 0-.765.147-1.059.44A1.445 1.445 0 0 0 2 3v12c0 .412.147.766.441 1.06Z"/>
</svg>
